X: 15586
T: Gluepot, The
R: reel
M: 4/4
K: Amajor
|:EAAE cBAF|EAAF A2FE|FBBF dcBA|FBBF B2AB|
ceec fece|dcBA c2 BA|EAAF cBAF|1 EAAF ~A2FC:|2 EAAF ~A2cd||
|:e2de cede|e2de cede|fBBA Bcde|fBBA B3c|
d2fd c2ec|dcBA c2BA|EAAE cBAF|1 EAAG A2cd:|2 EAAG A3||

